dist/img/icon/del-file.svg

<svg width="17" height="16" viewBox="0 0 17 16" fill="none" xmlns="http://www.w3.org/2000/svg">
<path fill-rule="evenodd" clip-rule="evenodd" d="M14.5 2.92298L13.5769 2L8.49745 7.07638L3.42308 2L2.5 2.92298L7.57947 8.00064L2.5 13.077L3.42308 14L8.49745 8.92362L13.5769 14L14.5 13.077L9.42053 8.00064L14.5 2.92298Z" fill="#0047FF"/>
</svg>

<svg width="17" height="16" viewBox="0 0 17 16" fill="none" xmlns="http://www.w3.org/2000/svg"><path fill-rule="evenodd" clip-rule="evenodd" d="M14.5 2.923L13.577 2l-5.08 5.076L3.423 2l-.923.923 5.08 5.078-5.08 5.076.923.923 5.074-5.076L13.577 14l.923-.923-5.08-5.076 5.08-5.078z" fill="#0047FF"/></svg>
